assets/features/channel/other/fawry.svg

<svg width="80" height="80" viewBox="0 0 80 80" fill="none" xmlns="http://www.w3.org/2000/svg">
<rect width="80" height="80" rx="8" fill="#FFD401"/>
<path d="M59.9891 40.0086C59.9891 51.0596 51.0511 60 40.0031 60C37.893 60 35.8687 59.674 33.9816 59.0734C31.1338 58.181 28.5434 56.6366 26.3818 54.6118C22.4361 50.991 20 45.7743 20 39.9914C20 28.9404 28.9379 20 39.986 20C42.3877 20 44.6694 20.4118 46.7795 21.184C49.5415 22.1793 52.029 23.7752 54.0533 25.8001C57.7246 29.4552 59.9891 34.4659 59.9891 40.0086Z" fill="white"/>
<path d="M49.2672 48.5028L46.5738 47.1643C46.5738 47.1643 41.9933 55.5212 33.9475 59.0905C31.0997 58.1982 28.5092 56.6538 26.3477 54.6289C28.1147 54.3715 30.9624 53.4792 33.9475 50.5277C38.8539 45.7229 39.969 43.0631 39.969 43.0631L37.8589 41.6559C37.1212 41.1755 37.2756 40.0772 38.0819 39.8027L47.3115 36.5937C47.9462 36.3706 48.6324 36.7825 48.6839 37.4517L50.0563 47.9022C50.1936 48.3655 49.7132 48.7259 49.2672 48.5028Z" fill="#006E9C"/>
<path d="M52.0462 36.9196C51.8232 37.503 50.9826 37.4001 50.8968 36.7995L50.2964 33.2817L45.7502 34.6888C45.2355 34.8432 44.7895 34.3284 45.0125 33.848C45.613 32.561 46.4879 30.416 47.1912 27.6704C47.826 25.0449 47.38 22.7283 46.831 21.2354C49.593 22.2306 52.0805 23.8265 54.1048 25.8514C54.4479 30.0041 53.0069 34.4657 52.0462 36.9196Z" fill="#006E9C"/>
</svg>

<svg xmlns="http://www.w3.org/2000/svg" width="80" height="80" fill="none" viewBox="0 0 80 80"><rect width="80" height="80" fill="#ffd401" rx="8"/><path fill="#fff" d="M59.99 40.009C59.99 51.059 51.05 60 40.002 60c-2.11 0-4.134-.326-6.021-.927a19.8 19.8 0 0 1-7.6-4.461C22.436 50.99 20 45.774 20 39.992 20 28.94 28.938 20 39.986 20c2.402 0 4.683.412 6.794 1.184a19.8 19.8 0 0 1 7.273 4.616c3.672 3.655 5.936 8.666 5.936 14.209"/><path fill="#006e9c" d="m49.267 48.503-2.693-1.339s-4.58 8.357-12.626 11.926a19.8 19.8 0 0 1-7.6-4.461c1.767-.258 4.614-1.15 7.6-4.101 4.906-4.805 6.021-7.465 6.021-7.465l-2.11-1.407a1.038 1.038 0 0 1 .223-1.853l9.23-3.21c.634-.222 1.32.19 1.372.859l1.372 10.45c.138.463-.343.824-.789.6m2.779-11.582c-.223.583-1.063.48-1.15-.12l-.6-3.518-4.546 1.407a.611.611 0 0 1-.737-.841c.6-1.287 1.475-3.432 2.178-6.178a11.2 11.2 0 0 0-.36-6.435 19.8 19.8 0 0 1 7.274 4.616c.343 4.153-1.098 8.615-2.059 11.069"/></svg>
